X:294
T: Dui hua I
N: C0685B
O: China,Anhui
S: MM, Komposition]
N: Kopie der Noten.
N: +++Dieses Lied wurde GETEILT!!! Der erste Teil ist im vorherigen
N: Dokument unter gleicher Signatur B kodiert.
N: Ergaenzungen: Oktavierungspunkte: T.34,1, +3); Punktierungen: T.17,2
N:  +3_.); Tonlaenge: T.46,2, +1_); schlecht lesbar T.72,1.
R: Xiaodiao, Huangmeixi]
M: 2/4
L: 1/16
K: Bb
c2c2f2fd | c2dcb4 | d2dcb2bc | g2f6 |
b3bd2f2 | g2gfg4 | c2g2b2c2 | g2f6 |
fgfdc2df | d2dcb4 | d2dcb2c2 | g2f6 |
b3bd2f2 | g2gfg4 | c2g2b2c2 | g2f6 |
f4d3f | g2gdf4 | f3gd2c2 | cdb6 |
d2cdf3d | c2cgb4 | d2dcb2f2 | g2f6 |
b3bd2f2 | g2gfg4 | d2dcb2bg | f2g6 |
d2dcb2bg | f2g4b2 | d2dcb2f2 | g2f6 |
f4d3f | g3df2d2 | f3gd2c2 | cdb6 |
d2cdf3d | c3gb4 | d3cb2f2 | g2f6 |
b4d3f | g2gfg3b | dfdcb2bg | f2g6 |
d3cb2g2 | f2g4b2 | d3cb2f2 | g2f6 |
f3gd3f | gfgdf3f | f3gd2c2 | dfdcb3
g | b2gbf4 | fgfgb2g2 | b3cd2f2 | bcbgf4 |
d2f4dc | dfdcb2g2 | b3cd2f2 | gfdcb3
c | b2gbf4 | fgfgb3g | d3cb2f2 | g2g2z2
f2 | g2g2z2f2 | g2g2z2b2 | c3dcbg2 | f2z
gf2g2 | bcdfb2f2 | gbf6 |
f2f2d2f2 | g2gdf4 |
fgfdcdfd | cdb4f2 | g2fgb2z2 |
b2f4g2 | b2cdcbg2 | f8

@@@ Tune index: 6295
